svg/icon/elf.svg

<svg height="32" viewBox="0 0 32 32" width="32" xmlns="http://www.w3.org/2000/svg" xmlns:xlink="http://www.w3.org/1999/xlink"><defs><linearGradient id="a" x1="50%" x2="50%" y1="0%" y2="100%"><stop offset="0" stop-color="#fff" stop-opacity=".5"/><stop offset="1" stop-opacity=".5"/></linearGradient><circle id="b" cx="16" cy="15" r="15"/><filter id="c" height="111.7%" width="111.7%" x="-5.8%" y="-4.2%"><feOffset dy=".5" in="SourceAlpha" result="shadowOffsetOuter1"/><feGaussianBlur in="shadowOffsetOuter1" result="shadowBlurOuter1" stdDeviation=".5"/><feComposite in="shadowBlurOuter1" in2="SourceAlpha" operator="out" result="shadowBlurOuter1"/><feColorMatrix in="shadowBlurOuter1" values="0 0 0 0 0   0 0 0 0 0   0 0 0 0 0  0 0 0 0.199473505 0"/></filter><path id="d" d="m25.9999995 14.9621243c-.0009995 2.3363753-1.8099352 4.1579112-4.1221775 4.1509119-2.2641106-.0069215-4.101341-1.8786193-4.0896541-4.1663105.0118407-2.2862134 1.8695232-4.1499787 4.12187-4.1352023 2.2985563.0150097 4.091038 1.8339792 4.0899616 4.1506009zm-16.90990835 7.9569437c-1.68376263-.0003111-3.02645164-1.3572473-3.02106951-3.0545063.00530525-1.7059693 1.33876775-3.0842923 3.0161487-3.0454071.48147046.0111989.96617016.1913149 1.43595376.3379897.6680768.2085799 1.3206222.4674773 1.9857773.6860118.4135018.1358647.8081661.0405183 1.1727673-.185871.5307554-.3295905.9811633-.7283189 1.2669547-1.312296.2909429-.5943984.9511771-.8147995 1.5373685-.5625904.544057.2340886.8270805.8267761.6696146 1.4025096-.1767647.6468156-.7090579.9949932-1.3737517.8788044-.5884211-.1028124-1.1732286-.2926497-1.771107-.075515-1.0694303.3883849-1.5400596 1.2751218-1.891513 2.2862135-.1919885.5521691-.3966634 1.1332688-.7399667 1.5904804-.5520534.7352404-1.364602 1.0578316-2.28717695 1.0541764zm-.06431652-15.83673156c1.36767747.00007777 2.43249457.80033415 2.89658837 2.11714086.1833771.52020553.4602495 1.0066588.6956795 1.5079661.5825008 1.2404363 2.0456728 1.3614469 2.9743987 1.0226794.821929-.2998045 1.6135642.2279448 1.6326323 1.0797629.0132247.5910542-.2907891 1.0208129-.8445339 1.1938518-.4886979.1526631-1.0416739-.0543614-1.341305-.5013073-.1074121-.1602068-.207366-.3266353-.3266957-.4773541-.8159317-1.0302232-1.7210531-1.3003194-2.9500253-.8382083-.4276491.1607512-.8282337.4004393-1.2306637.6234845-1.56074239.8654279-3.47324577.2548533-4.23366462-1.3586471-.95648236-2.02957153.5042292-4.3695243 2.72758935-4.36936876zm9.53083917 15.90736256c-.0123789 1.1188813-.9260348 2.0301159-2.0155328 2.0099734-1.0534377-.0193648-1.9331862-.9270998-1.9592511-1.9468239-.0296017-1.1542668.8181615-2.0928766 1.997618-2.1041532 1.127865-.0108101 1.9896217.9192449 1.9771659 2.0410037zm-3.9641042-15.96952436c-.0003075-1.1324911.8867453-2.03058251 1.9953883-2.02008352 1.0783493.01018791 1.9797801.93262143 1.9714762 2.0175171-.0086883 1.14151245-.8625256 2.0565578-1.9865462 2.03517096-1.278334-.02426433-2.0322174-1.05479857-1.9803183-2.03260454z"/><filter id="e" height="117.5%" width="117.5%" x="-8.8%" y="-6.2%"><feOffset dy=".5" in="SourceAlpha" result="shadowOffsetOuter1"/><feGaussianBlur in="shadowOffsetOuter1" result="shadowBlurOuter1" stdDeviation=".5"/><feColorMatrix in="shadowBlurOuter1" values="0 0 0 0 0   0 0 0 0 0   0 0 0 0 0  0 0 0 0.204257246 0"/></filter></defs><g fill="none" fill-rule="evenodd"><use fill="#000" filter="url(#c)" xlink:href="#b"/><use fill="#2b5ebb" xlink:href="#b"/><use fill="url(#a)" xlink:href="#b"/><circle cx="16" cy="15" r="14.5" stroke="#000" stroke-opacity=".097"/><use fill="#000" filter="url(#e)" xlink:href="#d"/><use fill="#fff" xlink:href="#d"/></g></svg>

<svg xmlns="http://www.w3.org/2000/svg" xmlns:xlink="http://www.w3.org/1999/xlink" width="32" height="32" viewBox="0 0 32 32">
  <defs>
    <linearGradient id="elf-c" x1="50%" x2="50%" y1="0%" y2="100%">
      <stop offset="0%" stop-color="#FFF" stop-opacity=".5"/>
      <stop offset="100%" stop-opacity=".5"/>
    </linearGradient>
    <circle id="elf-b" cx="16" cy="15" r="15"/>
    <filter id="elf-a" width="111.7%" height="111.7%" x="-5.8%" y="-4.2%" filterUnits="objectBoundingBox">
      <feOffset dy=".5" in="SourceAlpha" result="shadowOffsetOuter1"/>
      <feGaussianBlur in="shadowOffsetOuter1" result="shadowBlurOuter1" stdDeviation=".5"/>
      <feComposite in="shadowBlurOuter1" in2="SourceAlpha" operator="out" result="shadowBlurOuter1"/>
      <feColorMatrix in="shadowBlurOuter1" values="0 0 0 0 0   0 0 0 0 0   0 0 0 0 0  0 0 0 0.199473505 0"/>
    </filter>
    <path id="elf-e" d="M25.9999995,14.9621243 C25.999,17.2984996 24.1900643,19.1200355 21.877822,19.1130362 C19.6137114,19.1061147 17.776481,17.2344169 17.7881679,14.9467257 C17.8000086,12.6605123 19.6576911,10.796747 21.9100379,10.8115234 C24.2085942,10.8265331 26.0010759,12.6455026 25.9999995,14.9621243 Z M9.09009115,22.919068 C7.40632852,22.9187569 6.06363951,21.5618207 6.06902164,19.8645617 C6.07432689,18.1585924 7.40778939,16.7802694 9.08517034,16.8191546 C9.5666408,16.8303535 10.0513405,17.0104695 10.5211241,17.1571443 C11.1892009,17.3657242 11.8417463,17.6246216 12.5069014,17.8431561 C12.9204032,17.9790208 13.3150675,17.8836744 13.6796687,17.6572851 C14.2104241,17.3276946 14.660832,16.9289662 14.9466234,16.3449891 C15.2375663,15.7505907 15.8978005,15.5301896 16.4839919,15.7823987 C17.0280489,16.0164873 17.3110724,16.6091748 17.1536065,17.1849083 C16.9768418,17.8317239 16.4445486,18.1799015 15.7798548,18.0637127 C15.1914337,17.9609003 14.6066262,17.771063 14.0087478,17.9881977 C12.9393175,18.3765826 12.4686882,19.2633195 12.1172348,20.2744112 C11.9252463,20.8265803 11.7205714,21.40768 11.3772681,21.8648916 C10.8252147,22.600132 10.0126661,22.9227232 9.09009115,22.919068 Z M9.02577463,7.08233644 C10.3934521,7.08241421 11.4582692,7.88267059 11.922363,9.1994773 C12.1057401,9.71968283 12.3826125,10.2061361 12.6180425,10.7074434 C13.2005433,11.9478797 14.6637153,12.0688903 15.5924412,11.7301228 C16.4143702,11.4303183 17.2060054,11.9580676 17.2250735,12.8098857 C17.2382982,13.4009399 16.9342844,13.8306986 16.3805396,14.0037375 C15.8918417,14.1564006 15.3388657,13.9493761 15.0392346,13.5024302 C14.9318225,13.3422234 14.8318686,13.1757949 14.7125389,13.0250761 C13.8966072,11.9948529 12.9914858,11.7247567 11.7625136,12.1868678 C11.3348645,12.347619 10.9342799,12.5873071 10.5318499,12.8103523 C8.97110751,13.6757802 7.05860413,13.0652056 6.29818528,11.4517052 C5.34170292,9.42213367 6.80241448,7.0821809 9.02577463,7.08233644 Z M18.5566138,22.989699 C18.5442349,24.1085803 17.630579,25.0198149 16.541081,24.9996724 C15.4876433,24.9803076 14.6078948,24.0725726 14.5818299,23.0528485 C14.5522282,21.8985817 15.3999914,20.9599719 16.5794479,20.9486953 C17.7073129,20.9378852 18.5690696,21.8679402 18.5566138,22.989699 Z M14.5925096,7.02017464 C14.5922021,5.88768354 15.4792549,4.98959213 16.5878979,5.00009112 C17.6662472,5.01027903 18.567678,5.93271255 18.5593741,7.01760822 C18.5506858,8.15912067 17.6968485,9.07416602 16.5728279,9.05277918 C15.2944939,9.02851485 14.5406105,7.99798061 14.5925096,7.02017464 Z"/>
    <filter id="elf-d" width="117.5%" height="117.5%" x="-8.8%" y="-6.2%" filterUnits="objectBoundingBox">
      <feOffset dy=".5" in="SourceAlpha" result="shadowOffsetOuter1"/>
      <feGaussianBlur in="shadowOffsetOuter1" result="shadowBlurOuter1" stdDeviation=".5"/>
      <feColorMatrix in="shadowBlurOuter1" values="0 0 0 0 0   0 0 0 0 0   0 0 0 0 0  0 0 0 0.204257246 0"/>
    </filter>
  </defs>
  <g fill="none" fill-rule="evenodd">
    <use fill="#000" filter="url(#elf-a)" xlink:href="#elf-b"/>
    <use fill="#2B5EBB" xlink:href="#elf-b"/>
    <use fill="url(#elf-c)" style="mix-blend-mode:soft-light" xlink:href="#elf-b"/>
    <circle cx="16" cy="15" r="14.5" stroke="#000" stroke-opacity=".097"/>
    <g>
      <use fill="#000" filter="url(#elf-d)" xlink:href="#elf-e"/>
      <use fill="#FFF" xlink:href="#elf-e"/>
    </g>
  </g>
</svg>
